svg/logo/linear_fill.svg

<?xml version="1.0" encoding="UTF-8"?>
<svg width="24px" height="24px" viewBox="0 0 24 24" version="1.1" xmlns="http://www.w3.org/2000/svg" xmlns:xlink="http://www.w3.org/1999/xlink">
    <title>linear_fill</title>
    <g id="Icon" stroke="none" stroke-width="1" fill="none" fill-rule="evenodd">
        <g id="Logo" transform="translate(-816.000000, -240.000000)">
            <g id="linear_fill" transform="translate(816.000000, 240.000000)">
                <path d="M24,0 L24,24 L0,24 L0,0 L24,0 Z M12.5935,23.2578 L12.5819,23.2595 L12.5109,23.295 L12.4919,23.2987 L12.4767,23.295 L12.4057,23.2595 C12.3958,23.2564 12.387,23.259 12.3821,23.2649 L12.378,23.2758 L12.3609,23.7031 L12.3659,23.7235 L12.3769,23.7357 L12.4805,23.8097 L12.4953,23.8136 L12.5071,23.8097 L12.6107,23.7357 L12.6233,23.7197 L12.6267,23.7031 L12.6096,23.2758 C12.6076,23.2657 12.601,23.2593 12.5935,23.2578 Z M12.8584,23.1453 L12.8445,23.1473 L12.6598,23.2397 L12.6499,23.2499 L12.6472,23.2611 L12.6651,23.6906 L12.6699,23.7034 L12.6784,23.7105 L12.8793,23.8032 C12.8914,23.8069 12.9022,23.803 12.9078,23.7952 L12.9118,23.7812 L12.8777,23.1665 C12.8753,23.1546 12.8674,23.147 12.8584,23.1453 Z M12.143,23.1473 C12.1332,23.1424 12.1222,23.1453 12.1156,23.1526 L12.1099,23.1665 L12.0758,23.7812 C12.0751,23.7927 12.0828,23.8019 12.0926,23.8046 L12.1083,23.8032 L12.3092,23.7105 L12.3186,23.7024 L12.3225,23.6906 L12.3404,23.2611 L12.3372,23.2485 L12.3278,23.2397 L12.143,23.1473 Z" id="MingCute" fill-rule="nonzero"></path>
                <path d="M4.92893,4.92898 C8.83418,1.02373 15.1658,1.02373 19.0711,4.92898 C22.9763,8.83422 22.9763,15.1659 19.0711,19.0711 C18.6805,19.4616 18.0474,19.4616 17.6569,19.0711 L4.92893,6.34319 C4.53841,5.95267 4.53841,5.3195 4.92893,4.92898 Z M3.16973,7.41242 C3.56026,7.0219 4.19342,7.0219 4.58395,7.41242 L16.5876,19.4161 C16.9781,19.8066 16.9782,20.4398 16.5876,20.8303 C16.1971,21.2208 15.5639,21.2208 15.1734,20.8303 L3.16973,8.82663 C2.77921,8.43611 2.77921,7.80294 3.16973,7.41242 Z M2.30675,10.7921 C2.69728,10.4016 3.33044,10.4016 3.72097,10.7921 L13.208,20.2791 C13.5985,20.6696 13.5985,21.3028 13.208,21.6933 C12.8174,22.0838 12.1843,22.0838 11.7938,21.6933 L2.30675,12.2063 C1.91623,11.8158 1.91623,11.1826 2.30675,10.7921 Z M2.80761,15.5356 C3.19814,15.1451 3.8313,15.1451 4.22183,15.5356 L8.46447,19.7782 C8.85499,20.1687 8.85499,20.8019 8.46447,21.1924 C8.07394,21.583 7.44078,21.583 7.05025,21.1924 L2.80761,16.9498 C2.41709,16.5593 2.41709,15.9261 2.80761,15.5356 Z" id="形状" fill="#09244B"></path>
            </g>
        </g>
    </g>
</svg>

<svg xmlns="http://www.w3.org/2000/svg" width="24" height="24"><g fill="none" fill-rule="evenodd"><path d="M24 0v24H0V0h24ZM12.594 23.258l-.012.002-.071.035-.02.004-.014-.004-.071-.036c-.01-.003-.019 0-.024.006l-.004.01-.017.428.005.02.01.013.104.074.015.004.012-.004.104-.074.012-.016.004-.017-.017-.427c-.002-.01-.009-.017-.016-.018Zm.264-.113-.014.002-.184.093-.01.01-.003.011.018.43.005.012.008.008.201.092c.012.004.023 0 .029-.008l.004-.014-.034-.614c-.003-.012-.01-.02-.02-.022Zm-.715.002a.023.023 0 0 0-.027.006l-.006.014-.034.614c0 .012.007.02.017.024l.015-.002.201-.093.01-.008.003-.011.018-.43-.003-.012-.01-.01-.184-.092Z"/><path fill="#09244B" d="M4.929 4.929c3.905-3.905 10.237-3.905 14.142 0 3.905 3.905 3.905 10.237 0 14.142a1 1 0 0 1-1.414 0L4.929 6.343a1 1 0 0 1 0-1.414Zm-1.76 2.483a1 1 0 0 1 1.415 0l12.004 12.004a1 1 0 1 1-1.415 1.414L3.17 8.827a1 1 0 0 1 0-1.415Zm-.862 3.38a1 1 0 0 1 1.414 0l9.487 9.487a1 1 0 0 1-1.414 1.414l-9.487-9.487a1 1 0 0 1 0-1.414Zm.5 4.744a1 1 0 0 1 1.415 0l4.242 4.242a1 1 0 1 1-1.414 1.414L2.808 16.95a1 1 0 0 1 0-1.414Z"/></g></svg>
